X:1
T:In the Glory Land
T:In the Glory Land
T:Fred Coblentz
T:John Coblentz, 1890
T:Public Domain Courtesy of the Cyber Hymnal™
C:Fred Coblentz
Z:Public Domain
Z:Courtesy of the Cyber Hymnal™
%%score ( 1 2 ) ( 3 4 )
L:1/8
Q:1/4=110
M:4/4
K:Ab
V:1 treble 
V:2 treble 
V:3 bass 
V:4 bass 
V:1
 [CE]2 | [Ec]2 [Ec]2 [EA]2 E2 | [DF]2 [DA]2 [CE]2 [CA]>[DB] | c4 A4 | [EB]6 [Ed]2 | %5
w: 1.~There|is a ci- ty|bright and fair, In the|glo- ry|land; Where|
w: 2.~Where|ne- ver com- eth|an- y night In the|glo- ry|land; For|
w: 3.~And|there my Sav- ior|now doth wait In the|glo- ry|land, To|
 [Ec]2 [Ec]2 [EA]2 E2 | [DF]2 [DA]2 [CE]2 [=DA]>[DB] | c4 B4 | [CA]6 ||"^Refrain" [EA]>[EA] | %10
w: joy- ful prais- es|fill the air, In the|glo- ry|land.||
w: God the Fa- ther|is the light, In the|glo- ry|land.|In the|
w: meet us at the|gold- en gate, In the|glo- ry|land.||
 [EG]2 [EG]2 [EB]2 [EB]2 | [EA]2 [EB]2 [Ec]2 [Ec]>[Ec] | [EB]2 [EG]2 [FA]2 [=DF]2 | E6 [Ed]2 | %14
w: ||||
w: glo- ry land, bright|glo- ry land, In the|glo- ry land so|fair; Where|
w: ||||
 [Ec]2 [Ec]2 [EA]2 E2 | [DF]2 [DA]2 [CE]2 [=DA]>[DB] | c4 B4 | !fermata!A6 !fermata![CA]2 |] %18
w: ||||
w: joy- ful prais- es|fill the air, In the|glo- ry|land. *|
w: ||||
V:2
 x2 | x6 E2 | x8 | (E2 E2) (E2 E2) | x8 | x6 E2 | x8 | (E2 E2) (D2 D2) | x6 || x2 | x8 | x8 | x8 | %13
 E6 x2 | x6 E2 | x8 | (E2 E2) (D2 D2) | C2 D2 x4 |] %18
V:3
 [A,,A,]2 | [A,,A,]2 [A,,A,]2 [C,A,]2 [C,A,]2 | [D,A,]2 [F,A,]2 A,2 A,>A, | (A,2 A,2) (A,2 A,2) | %4
 [E,G,]6 [E,B,]2 | [A,,A,]2 [A,,A,]2 [C,A,]2 [C,A,]2 | [D,A,]2 [F,A,]2 A,2 [F,A,]>[F,A,] | %7
 (A,2 A,2) (G,2 G,2) | [A,,A,]6 || [C,A,]>[C,A,] | [E,B,]2 [E,B,]2 [E,G,]2 [E,G,]2 | %11
 [C,A,]2 [E,G,]2 A,2 [A,,A,]>[A,,A,] | [B,,G,]2 [B,,B,]2 [B,,B,]2 [B,,A,]2 | [E,G,]6 [E,B,]2 | %14
 [A,,A,]2 [A,,A,]2 [C,A,]2 [C,A,]2 | [D,A,]2 [F,A,]2 A,2 [F,A,]>[F,A,] | (A,2 A,2) (G,2 G,2) | %17
 (A,2 F,2 E,2) x2 |] %18
V:4
 x2 | x8 | x4 A,2 A,>A, | A,4 C,4 | x8 | x8 | x4 A,2 x2 | E,4 E,4 | x6 || x2 | x8 | x4 A,2 x2 | %12
 x8 | x8 | x8 | x4 A,2 x2 | E,4 E,4 | A,,6 x2 |] %18

